tools/panel_16/bomi-panel.svg

<svg xmlns="http://www.w3.org/2000/svg" width="16" height="16" version="1.1">
 <defs>
  <style id="current-color-scheme" type="text/css">
   .ColorScheme-Text { color:#d3dae3; } .ColorScheme-Highlight { color:#5294e2; }
  </style>
 </defs>
 <g>
  <path style="fill:currentColor" class="ColorScheme-Text" d="m 8,1 c -0.3347727,0.0021 -0.6689637,0.028204 -1,0.078125 l 0,7.9238515 c 0,0.554 -0.446,1.0000005 -1,1.0000005 -0.554,0 -1,-0.4460005 -1,-1.0000005 L 5,1.6835938 C 2.5597787,2.8410901 1.0031451,5.2991728 1,8 c 0,3.865993 3.1340068,7 7,7 3.865993,0 7,-3.134007 7,-7 C 15,4.1340068 11.865993,1 8,1 Z m 0.1875,4.0000235 0.00195,0.00586 c 0.00521,-2.312e-4 0.010419,-2.312e-4 0.015625,0 0.033562,4.873e-4 0.066476,0.010563 0.095703,0.029297 l 3.5957028,2.2675782 c 0.136928,0.086461 0.136928,0.3100239 0,0.3964844 L 8.3007812,9.9687735 C 8.1636671,10.060175 7.9919967,9.9420122 8,9.7617425 L 8,5.2246329 c 8.358e-4,-0.1191485 0.082734,-0.217256 0.1875,-0.2246094 z"/>
 </g>
</svg>

<svg xmlns="http://www.w3.org/2000/svg" width="16" height="16" version="1.1">
 <defs>
  <style id="current-color-scheme" type="text/css">
   .ColorScheme-Text { color:#d3dae3; } .ColorScheme-Highlight { color:#5294e2; }
  </style>
 </defs>
 <path style="fill:currentColor" class="ColorScheme-Text" d="M 8,1 C 7.6652,1.0021 7.331,1.0282 7,1.0781 V 9.002 C 7,9.556 6.554,10.002 6,10.002 5.446,10.002 5,9.556 5,9.002 V 1.6836 C 2.5598,2.8411 1.0031,5.2992 1,8 1,11.866 4.134,15 8,15 11.866,15 15,11.866 15,8 15,4.134 11.866,1 8,1 Z M 8.1875,5 8.1895,5.0059 C 8.1947,5.0057 8.1999,5.0057 8.2051,5.0059 8.2386,5.0064 8.2716,5.0164 8.3008,5.0352 L 11.896,7.3028 C 12.033,7.3892 12.033,7.6128 11.896,7.6992 L 8.3008,9.9688 C 8.1637,10.06 7.992,9.942 8,9.7617 V 5.2246 C 8.0008,5.1055 8.0827,5.0074 8.1875,5 Z"/>
</svg>
